X:1
T:Le romarin valse
T: Le romarin valse 
T:Anonymous
T:by IMSLP - Public Domain
T:by IMSLP - Public Domain
C:Anonymous
Z:by IMSLP - Public Domain
%%score { ( 1 4 ) | ( 2 3 ) }
L:1/8
M:3/4
K:G
V:1 treble nm="Piano" snm="Pno."
V:4 treble 
V:2 bass 
V:3 bass 
V:1
!f! .[Gg]2 .[Gg].[Gg] .[Gg]2 | .[Dd]2 .[Gg]2 .[Bb]2 | .[dd']2 z2 z2 | [gg']6 | .e'.d'.c'.b.a.g | %5
 .f.e.d.c.B.A | G2 z2 z2 | z2 z2 B2 |!p! (d4{ed} B2) | g2 z2 (Bd) | !>!e3 .d.c.A | F2 z2 d2 | %12
!mf! !>!b4 g2 | e2 (cB).A.G | .F2 (e2 d2) | G2 z2!mf! (GB) | (d4{ed} B2) | g2 z2 (Bd) | e3 .d.c.A | %19
 F2 z2 d2 | !>!b4 g2 | e2 (cB).A.G | .F2!>(! (e2 d2)!>)! | G4 z2 ||!f! .[FA]2 .[FA].[FA] .[FA]2 | %25
 !>!f4!mf! .f.f | (g2 f2) .e2 | (d2 ^c2) .B2 | A2 [FA][FA] [FA]2 | !>![Adf]4 (gf) | e2 (b2 a2) | %31
 d4 z2 :|!p! .D2 .E2 .F2 | .G2 .A2 .B2 | d2 dd (d2 |!>(! b6)!>)! | c'2 aa a2 | c'4 b2 | a2 e2 f2 | %39
 g4 z2 | .[Dd]2 .[Ee]2 .[Ff]2 | .[Gg]2 .[Aa]2 .[Bb]2 | [dd']2 [dd'][dd'] [dd']2 |!>(! [Bb]6!>)! | %44
 c'2 aa a2 |!>(! (c'4 f2)!>)! | (gfgbaf) | g4 z2!fine! ||!mf! [FA]2 [FA][FA] [FA]2 | A2 F2 D2 | %50
 [Bd]2 [Bd][Bd] [Bd]2 | d2 B2 G2 | E4 E2 | E2 F2 G2 | A3 .B.A.G | .F2 .D2 (df) | a2 aa a2 | %57
 a2 f2 d2 |!>(! [dd']6!>)! |!>(! [Bb]6!>)! | .[Aa]2 .[Bb]2 .[^c^c']2 | .[dd']2 .[ee']2 .[ff']2 | %62
 [gg']2 [Bb]2 [^c^c']2 | [dd']4 z2 | .D2 .E2 .F2 | .G2 .A2 .B2 | [Bd]2 [Bd][Bd] [Bd]2 | [Bb]6- | %68
 [Bb]2 .a.a a2 | (!>!c'4 f2) | (g!f!fgbaf) | g4 z2!D.C.! |] %72
V:2
 .G,2 .G,.G, .G,2 | .D,2 .G,2 .B,2 | .D2 z2 z2 | [B,,D,G,B,]6 | [C,G,C]6 | [D,F,C]6 | %6
 G,2 [B,D]2 [B,D]2 | G,2 [B,D]2 [B,D]2 | G,2 [B,D]2 [B,D]2 | G,2 [B,D]2 [B,D]2 | z2 [CD]2 [CD]2 | %11
 D,2 [F,A,C]2 [F,A,C]2 | G,2 [B,D]2 [B,D]2 | C,2 [G,CE]2 [G,CE]2 | D,2 [F,A,C]2 [F,A,C]2 | %15
 [G,B,]2 z2 z2 | G,2 [B,D]2 [B,D]2 | G,2 [B,D]2 [B,D]2 | z2 [CD]2 [CD]2 | z2 [F,A,C]2 [F,A,C]2 | %20
 G,2 [B,D]2 [B,D]2 | C,2 [G,CE]2 [G,CE]2 | D,2 [F,A,C]2 [F,A,C]2 | [G,B,]4 z2 || D,A,F,A,F,A, | %25
 D,A,F,A,F,A, | A,,A,G,A,G,A, | A,,G,E,G,E,G, | D,A,F,A,F,A, | D,A,F,A,F,A, | A,,G,E,G,E,G, | %31
 [D,F,]4 z2 :| G,2 [B,D]2 [B,D]2 | G,2 [B,D]2 [B,D]2 | G,2 [B,D]2 [B,D]2 | G,2 [B,D]2 [B,D]2 | %36
 z2 [F,C]2 [F,C]2 | z2 [F,C]2 [F,C]2 | z2 [A,C]2 [A,C]2 | G,2 [B,D]2 [B,D]2 | G,2 [B,D]2 [B,D]2 | %41
 G,2 [B,D]2 [B,D]2 | G,2 [B,D]2 [B,D]2 | G,2 [B,D]2 [B,D]2 | z2 [F,C]2 [F,C]2 | z2 [F,A,]2 [A,C]2 | %46
 [D,G,B,]2 [D,G,B,]2 [D,F,C]2 | [G,B,]4 z2 || D,2 F,2 A,2 | F,2 D,2 z2 | G,,2 B,,2 D,2 | %51
 B,,2 G,,2 z2 | A,,2 [G,A,^C]2 [G,A,C]2 | A,,2 [G,A,^C]2 [G,A,C]2 | D,2 [F,A,D]2 [F,A,D]2 | %55
 D,2 [F,A,]2 z2 | D,2 [F,A,D]2 [F,A,D]2 | D,2 [F,A,D]2 [F,A,D]2 | G,2 [B,D]2 [B,D]2 | %59
 z2 [C=F]2 [CF]2 | z2 [D^F]2 [DF]2 | z2 [DF]2 [DF]2 | z2 [^CEG]2 [CEG]2 | [DF]4 z2 | %64
 G,2 [B,D]2 [B,D]2 | G,2 [B,D]2 [B,D]2 | G,2 [B,D]2 [B,D]2 | G,2 [B,D]2 [B,D]2 | z2 [F,C]2 [F,C]2 | %69
 z2 [F,A,]2 [A,C]2 | [D,G,B,] z [D,G,B,] z [D,A,C] z | [G,B,]4 z2 |] %72
V:3
 x6 | x6 | x6 | x6 | x6 | x6 | x6 | x6 | x6 | x6 | F,6 | x6 | x6 | x6 | x6 | x6 | x6 | x6 | F,6 | %19
 F,6 | x6 | x6 | x6 | x6 || D,6 | D,6 | x6 | A,,6 | D,6 | D,6 | A,,6 | x6 :| x6 | x6 | x6 | x6 | %36
 D,6 | D,6 | D,6 | x6 | x6 | x6 | x6 | x6 | D,6 | D,6 | x6 | x6 || x6 | x6 | x6 | x6 | x6 | x6 | %54
 x6 | x6 | x6 | x6 | x6 | ^G,6 | A,6 | A,6 | A,6 | x6 | x6 | x6 | x6 | x6 | D,6 | D,6 | x6 | x6 |] %72
V:4
 x6 | x6 | x6 | x6 | x6 | x6 | x6 | x6 | x6 | x6 | x6 | x6 | x6 | x6 | x6 | x6 | x6 | x6 | x6 | %19
 x6 | x6 | x6 | x6 | x6 || x6 | x6 | x6 | x6 | x6 | x6 | ^c6 | x6 :| x6 | x6 | x6 | x6 | x6 | x6 | %38
 x6 | x6 | x6 | x6 | x6 | x6 | x6 | x6 | x6 | x6 || x6 | x6 | x6 | x6 | x6 | x6 | x6 | x6 | x6 | %57
 x6 | x6 | x6 | x6 | x6 | x6 | x6 | x6 | x6 | x6 | x6 | x6 | x6 | x6 | x6 |] %72

